src/assets/filled/Forward10Seconds.svg

<svg width="24" height="24" viewBox="0 0 24 24"  xmlns="http://www.w3.org/2000/svg">
<path d="M19.6901 7.34996C19.4401 7.01996 18.9701 6.94996 18.6401 7.19996C18.3101 7.44996 18.2401 7.91996 18.4901 8.24996C19.5701 9.68996 20.1401 11.37 20.1401 13.11C20.1401 17.6 16.4901 21.25 12.0001 21.25C7.5101 21.25 3.8601 17.6 3.8601 13.11C3.8601 8.61996 7.5101 4.97996 12.0001 4.97996C12.5801 4.97996 13.1701 5.04996 13.8101 5.19996C13.8401 5.20996 13.8701 5.19996 13.9101 5.19996C13.9301 5.19996 13.9601 5.21996 13.9801 5.21996C14.0101 5.21996 14.0301 5.20996 14.0601 5.20996C14.1001 5.20996 14.1301 5.19996 14.1601 5.18996C14.2101 5.17996 14.2601 5.15996 14.3101 5.12996C14.3401 5.10996 14.3801 5.09996 14.4101 5.07996C14.4201 5.06996 14.4401 5.06996 14.4501 5.05996C14.4801 5.03996 14.4901 5.00996 14.5101 4.98996C14.5501 4.94996 14.5801 4.91996 14.6101 4.86996C14.6401 4.82996 14.6501 4.77996 14.6701 4.73996C14.6801 4.70996 14.7001 4.67996 14.7101 4.64996C14.7101 4.62996 14.7101 4.61996 14.7101 4.59996C14.7201 4.54996 14.7201 4.49996 14.7101 4.44996C14.7101 4.39996 14.7101 4.35996 14.7001 4.30996C14.6901 4.26996 14.6701 4.22996 14.6501 4.17996C14.6301 4.12996 14.6101 4.07996 14.5801 4.03996C14.5701 4.01996 14.5701 4.00996 14.5601 3.99996L12.5801 1.52996C12.3201 1.20996 11.8501 1.15996 11.5301 1.40996C11.2101 1.66996 11.1601 2.13996 11.4101 2.45996L12.2301 3.47996C12.1501 3.47996 12.0701 3.46996 11.9901 3.46996C6.6801 3.46996 2.3501 7.78996 2.3501 13.11C2.3501 18.43 6.6701 22.75 11.9901 22.75C17.3101 22.75 21.6301 18.43 21.6301 13.11C21.6401 11.04 20.9601 9.04996 19.6901 7.34996Z" />
<path d="M9.54004 16.6701C9.13004 16.6701 8.79004 16.3301 8.79004 15.9201V12.5301L8.60004 12.7501C8.32004 13.0601 7.85004 13.0801 7.54004 12.8101C7.23004 12.5301 7.21004 12.0601 7.48004 11.7501L8.98004 10.0801C9.19004 9.85008 9.52004 9.77008 9.81004 9.88008C10.1 9.99008 10.29 10.2701 10.29 10.5801V15.9301C10.29 16.3401 9.96004 16.6701 9.54004 16.6701Z" />
<path d="M14 16.6701C12.48 16.6701 11.25 15.4401 11.25 13.9201V12.5701C11.25 11.0501 12.48 9.82007 14 9.82007C15.52 9.82007 16.75 11.0501 16.75 12.5701V13.9201C16.75 15.4401 15.52 16.6701 14 16.6701ZM14 11.3301C13.31 11.3301 12.75 11.8901 12.75 12.5801V13.9301C12.75 14.6201 13.31 15.1801 14 15.1801C14.69 15.1801 15.25 14.6201 15.25 13.9301V12.5801C15.25 11.8901 14.69 11.3301 14 11.3301Z" />
</svg>

<?xml version="1.0" encoding="UTF-8"?>
<svg width="24" height="24" viewBox="0 0 24 24" xmlns="http://www.w3.org/2000/svg">
 <path d="m19.69 7.35c-0.25-0.33-0.72-0.4-1.05-0.15s-0.4 0.72-0.15 1.05c1.08 1.44 1.65 3.12 1.65 4.86 0 4.49-3.65 8.14-8.14 8.14s-8.14-3.65-8.14-8.14c0-4.49 3.65-8.13 8.14-8.13 0.58 0 1.17 0.07 1.81 0.22 0.03 0.01 0.06 0 0.1 0 0.02 0 0.05 0.02 0.07 0.02 0.03 0 0.05-0.01 0.08-0.01 0.04 0 0.07-0.01 0.1-0.02 0.05-0.01 0.1-0.03 0.15-0.06 0.03-0.02 0.07-0.03 0.1-0.05 0.01-0.01 0.03-0.01 0.04-0.02 0.03-0.02 0.04-0.05 0.06-0.07 0.04-0.04 0.07-0.07 0.1-0.12 0.03-0.04 0.04-0.09 0.06-0.13 0.01-0.03 0.03-0.06 0.04-0.09v-0.05c0.01-0.05 0.01-0.1 0-0.15 0-0.05 0-0.09-0.01-0.14-0.01-0.04-0.03-0.08-0.05-0.13s-0.04-0.1-0.07-0.14c-0.01-0.02-0.01-0.03-0.02-0.04l-1.98-2.47c-0.26-0.32-0.73-0.37-1.05-0.12-0.32 0.26-0.37 0.73-0.12 1.05l0.82 1.02c-0.08 0-0.16-0.01-0.24-0.01-5.31 0-9.64 4.32-9.64 9.64 0 5.32 4.32 9.64 9.64 9.64s9.64-4.32 9.64-9.64c0.01-2.07-0.67-4.06-1.94-5.76z"/>
 <path d="m9.54 16.67c-0.41 0-0.75-0.34-0.75-0.75v-3.39l-0.19 0.22c-0.28 0.31-0.75 0.33-1.06 0.06-0.31-0.28-0.33-0.75-0.06-1.06l1.5-1.67c0.21-0.23002 0.54-0.31002 0.83-0.20002 0.28996 0.11 0.47996 0.39002 0.47996 0.70002v5.35c0 0.41-0.32996 0.74-0.74996 0.74z"/>
 <path d="m14 16.67c-1.52 0-2.75-1.23-2.75-2.75v-1.35c0-1.52 1.23-2.75 2.75-2.75s2.75 1.23 2.75 2.75v1.35c0 1.52-1.23 2.75-2.75 2.75zm0-5.34c-0.69 0-1.25 0.56-1.25 1.25v1.35c0 0.69 0.56 1.25 1.25 1.25s1.25-0.56 1.25-1.25v-1.35c0-0.69-0.56-1.25-1.25-1.25z"/>
</svg>
